X: 3
T: The Old Torn Petticoat
R: reel
M: 4/4
L: 1/8
K: Ador
AB|c2 Bc AGEF|G2 BG DGBG|cABG AGEF|GABG A2 AB|c2 Bc AGEF|G2 BG dGBG|cABG AGEF|GABG A2 AB|||:(3Bcd ef g3e|aged cA A2|(3Bcd ef gedg|eaag ea a2||bagb agef|gage dBGB|c2 Bc AGEF|GABG A2 AB||


Tune 368	Setting 13174

